svgs/duotone/circle-f.svg

<svg xmlns="http://www.w3.org/2000/svg" viewBox="0 0 512 512"><!-- Font Awesome Pro 6.0.0-alpha2 by @fontawesome - https://fontawesome.com License - https://fontawesome.com/license (Commercial License) --><defs><style>.fa-secondary{opacity:.4}</style></defs><path d="M256 16C123.451 16 16 123.451 16 256S123.451 496 256 496S496 388.549 496 256S388.549 16 256 16ZM328 176H208V240H296C309.25 240 320 250.75 320 264S309.25 288 296 288H208V360C208 373.25 197.25 384 184 384S160 373.25 160 360V152C160 138.75 170.75 128 184 128H328C341.25 128 352 138.75 352 152S341.25 176 328 176Z" class="fa-secondary"/><path d="M328 128H184C170.75 128 160 138.75 160 152V360C160 373.25 170.75 384 184 384S208 373.25 208 360V288H296C309.25 288 320 277.25 320 264S309.25 240 296 240H208V176H328C341.25 176 352 165.25 352 152S341.25 128 328 128Z" class="fa-primary"/></svg>

<svg xmlns="http://www.w3.org/2000/svg" viewBox="0 0 512 512"><!--! Font Awesome Pro 6.3.0 by @fontawesome - https://fontawesome.com License - https://fontawesome.com/license (Commercial License) Copyright 2023 Fonticons, Inc. --><defs><style>.fa-secondary{opacity:.4}</style></defs><path class="fa-primary" d="M328 128h-144C170.8 128 160 138.8 160 152v208C160 373.3 170.8 384 184 384s24-10.75 24-24V288h88C309.3 288 320 277.3 320 264S309.3 240 296 240H208v-64h120C341.3 176 352 165.3 352 152S341.3 128 328 128z"/><path class="fa-secondary" d="M256 0C114.6 0 0 114.6 0 256s114.6 256 256 256s256-114.6 256-256S397.4 0 256 0zM328 176H208v64h88C309.3 240 320 250.8 320 264S309.3 288 296 288H208v72C208 373.3 197.3 384 184 384S160 373.3 160 360v-208C160 138.8 170.8 128 184 128h144C341.3 128 352 138.8 352 152S341.3 176 328 176z"/></svg>
